flaticon/constructions/light-bulb-2.svg

<svg xmlns="http://www.w3.org/2000/svg" width="32" height="32" viewBox="0 0 24 24">
    <path d="M 15.601562 14.398438 L 15.601562 3.601562 C 15.601562 1.601562 14 0 12 0 C 10 0 8.398438 1.601562 8.398438 3.601562 L 8.398438 14.398438 C 8.160156 14.398438 8 14.558594 8 14.800781 L 8 17.160156 C 8 18.128906 8.6875 18.949219 9.601562 19.152344 L 9.601562 21.359375 C 9.601562 21.878906 9.71875 22.359375 10 22.800781 L 10.078125 22.921875 C 10.359375 23.359375 10.800781 23.71875 11.28125 23.878906 C 11.519531 23.960938 11.761719 24 12 24 C 12.761719 24 13.480469 23.640625 13.878906 22.960938 L 14 22.761719 C 14.089844 22.597656 14.167969 22.425781 14.230469 22.25 C 14.285156 22.183594 14.320312 22.097656 14.320312 22 C 14.320312 21.988281 14.320312 21.976562 14.320312 21.964844 C 14.371094 21.757812 14.398438 21.542969 14.398438 21.320312 L 14.398438 19.15625 C 15.296875 18.964844 16 18.136719 16 17.160156 L 16 14.800781 C 16 14.558594 15.839844 14.398438 15.601562 14.398438 Z M 9.199219 3.601562 C 9.199219 2.039062 10.480469 0.800781 12 0.800781 C 13.558594 0.800781 14.800781 2.039062 14.800781 3.601562 L 14.800781 14.398438 L 14 14.398438 L 14 3.601562 C 14 2.480469 13.121094 1.601562 12 1.601562 C 10.878906 1.601562 10 2.480469 10 3.601562 L 10 14.398438 L 9.199219 14.398438 Z M 12 4 C 11.761719 4 11.601562 4.160156 11.601562 4.398438 L 11.601562 14.398438 L 10.800781 14.398438 L 10.800781 3.601562 C 10.800781 2.921875 11.320312 2.398438 12 2.398438 C 12.679688 2.398438 13.199219 2.921875 13.199219 3.601562 L 13.199219 14.398438 L 12.398438 14.398438 L 12.398438 4.398438 C 12.398438 4.160156 12.238281 4 12 4 Z M 11.558594 23.121094 C 11.28125 23 11 22.800781 10.800781 22.480469 L 10.738281 22.398438 L 11.601562 22.398438 C 11.839844 22.398438 12 22.238281 12 22 C 12 21.761719 11.839844 21.601562 11.601562 21.601562 L 10.421875 21.601562 C 10.410156 21.507812 10.398438 21.414062 10.398438 21.320312 L 10.398438 20.800781 L 10.800781 20.800781 C 11.039062 20.800781 11.199219 20.640625 11.199219 20.398438 C 11.199219 20.160156 11.039062 20 10.800781 20 L 10.398438 20 L 10.398438 19.199219 L 13.601562 19.199219 L 13.601562 20 L 12.398438 20 C 12.160156 20 12 20.160156 12 20.398438 C 12 20.640625 12.160156 20.800781 12.398438 20.800781 L 13.601562 20.800781 L 13.601562 21.320312 C 13.601562 21.414062 13.59375 21.507812 13.582031 21.601562 L 13.199219 21.601562 C 12.960938 21.601562 12.800781 21.761719 12.800781 22 C 12.800781 22.238281 12.960938 22.398438 13.199219 22.398438 L 13.273438 22.398438 L 13.199219 22.519531 C 12.878906 23.078125 12.199219 23.320312 11.558594 23.121094 Z M 15.238281 17.160156 C 15.238281 17.839844 14.679688 18.398438 14 18.398438 L 10.039062 18.398438 C 9.359375 18.398438 8.800781 17.839844 8.800781 17.160156 L 8.800781 15.199219 L 15.238281 15.199219 Z M 15.238281 17.160156"/>
</svg>

<svg xmlns="http://www.w3.org/2000/svg" width="32" height="32" viewBox="0 0 24 24">
    <path d="M15.602 14.398V3.602C15.602 1.602 14 0 12 0c-2 0-3.602 1.602-3.602 3.602v10.796c-.238 0-.398.16-.398.403v2.36c0 .968.688 1.788 1.602 1.991v2.207c0 .52.117 1 .398 1.442l.078.12c.281.438.723.798 1.203.958.239.082.48.121.719.121.762 0 1.48-.36 1.879-1.04l.121-.198c.09-.164.168-.336.23-.512a.39.39 0 0 0 .09-.25v-.035c.051-.207.078-.422.078-.645v-2.164A2.055 2.055 0 0 0 16 17.16V14.8c0-.241-.16-.402-.398-.402zM9.199 3.602C9.2 2.039 10.48.8 12 .8c1.559 0 2.8 1.238 2.8 2.8v10.797H14V3.602c0-1.122-.879-2-2-2s-2 .878-2 2v10.796h-.8zM12 4c-.238 0-.398.16-.398.398v10H10.8V3.602c0-.68.52-1.204 1.199-1.204.68 0 1.2.524 1.2 1.204v10.796h-.802v-10c0-.238-.16-.398-.398-.398zm-.441 19.121a1.654 1.654 0 0 1-.758-.64l-.063-.083h.864c.238 0 .398-.16.398-.398 0-.238-.16-.398-.398-.398h-1.18a2.276 2.276 0 0 1-.024-.282v-.52h.403c.238 0 .398-.16.398-.402 0-.238-.16-.398-.398-.398h-.403v-.8h3.204v.8h-1.204c-.238 0-.398.16-.398.398 0 .243.16.403.398.403h1.204v.52c0 .093-.008.187-.02.28h-.383c-.238 0-.398.16-.398.399 0 .238.16.398.398.398h.074l-.074.122c-.32.558-1 .8-1.64.601zm3.68-5.96c0 .679-.56 1.237-1.239 1.237h-3.96c-.68 0-1.24-.558-1.24-1.238V15.2h6.438zm0 0"/>
</svg>
